X: 10900
T: Drowsy Maggie
R: reel
M: 4/4
K: Edorian
|:~E2Bd cABE|~E2BE FADF|~E2Bd cABc|dfec dBAF:|
d2fe dcBd|c/B/A eA ceAc|defe dcBc|def^g aece|
dafe dcBA|B/c/d ef gecg|f/g/aec dcBa|^gbeg aecA||

